packages/icons/assets/Focus.svg

<svg xmlns="http://www.w3.org/2000/svg" viewBox="0 0 16 16"><path fill="#414141" d="M10.675781 15.988281V14.65625h3.992188v-3.992188H16v5.324219Zm-10.6484372 0v-5.324219H1.359375v3.992188h3.992187v1.332031ZM14.667969 5.335938V1.34375h-3.992188V.0117188H16V5.335938Zm-14.6406252 0V.0117188H5.351562V1.34375H1.359375v3.992188Zm0 0"/></svg>

<svg xmlns="http://www.w3.org/2000/svg" viewBox="0 0 16 16"><path fill="#414141" d="M10.68 15.99v-1.33h3.99v-4H16V16Zm-10.65 0v-5.33h1.33v4h4v1.33ZM14.67 5.34v-4h-4V.01H16v5.33Zm-14.64 0V0h5.32v1.33h-4v4Zm0 0"/></svg>
